build/images/common/tg.svg

<svg width="26" height="21" viewBox="0 0 26 21" fill="none" xmlns="http://www.w3.org/2000/svg">
<path d="M10.1509 13.9038L9.88017 19.4979L16.0156 14.2948L10.1509 13.9038Z" fill="white"/>
<path d="M24.3165 0.550419L1.39875 9.27239C0.737084 9.513 0.76716 10.4453 1.42883 10.6559L7.32368 12.6409L20.7976 3.94898L10.1508 13.9041L18.4517 20.1899C19.3239 20.8516 20.557 20.4004 20.8277 19.3478L25.309 1.39254C25.4594 0.821101 24.8879 0.339889 24.3165 0.550419Z" fill="white"/>
</svg>

<svg width="26" height="21" fill="none" xmlns="http://www.w3.org/2000/svg"><path d="M10.15 13.904l-.27 5.594 6.136-5.203-5.865-.391z" fill="#fff"/><path d="M24.317.55L1.399 9.272c-.662.241-.632 1.173.03 1.384l5.895 1.985 13.474-8.692-10.647 9.955 8.3 6.286c.873.662 2.106.21 2.377-.842l4.481-17.955c.15-.572-.421-1.053-.992-.843z" fill="#fff"/></svg>
